build/img/landings/copywriting/prog/Document.svg

<svg width="16" height="18" viewBox="0 0 16 18" fill="none" xmlns="http://www.w3.org/2000/svg">
<path fill-rule="evenodd" clip-rule="evenodd" d="M4.50833 0.666504H11.4925C14.0667 0.666504 15.5 2.14984 15.5 4.6915V13.2998C15.5 15.8832 14.0667 17.3332 11.4925 17.3332H4.50833C1.975 17.3332 0.5 15.8832 0.5 13.2998V4.6915C0.5 2.14984 1.975 0.666504 4.50833 0.666504ZM4.73337 4.54977V4.54144H7.2242C7.58337 4.54144 7.87503 4.83311 7.87503 5.19061C7.87503 5.55811 7.58337 5.84977 7.2242 5.84977H4.73337C4.3742 5.84977 4.08337 5.55811 4.08337 5.19977C4.08337 4.84144 4.3742 4.54977 4.73337 4.54977ZM4.73337 9.61639H11.2667C11.625 9.61639 11.9167 9.32472 11.9167 8.96639C11.9167 8.60806 11.625 8.31556 11.2667 8.31556H4.73337C4.3742 8.31556 4.08337 8.60806 4.08337 8.96639C4.08337 9.32472 4.3742 9.61639 4.73337 9.61639ZM4.73334 13.4248H11.2667C11.5992 13.3914 11.85 13.1073 11.85 12.7748C11.85 12.4331 11.5992 12.1498 11.2667 12.1164H4.73334C4.48334 12.0914 4.24167 12.2081 4.10834 12.4248C3.97501 12.6331 3.97501 12.9081 4.10834 13.1248C4.24167 13.3331 4.48334 13.4581 4.73334 13.4248Z" fill="white"/>
</svg>

<svg width="16" height="18" fill="none" xmlns="http://www.w3.org/2000/svg"><path fill-rule="evenodd" clip-rule="evenodd" d="M4.508.667h6.984C14.067.667 15.5 2.15 15.5 4.69v8.61c0 2.583-1.433 4.033-4.008 4.033H4.508C1.975 17.333.5 15.883.5 13.3V4.69C.5 2.15 1.975.667 4.508.667zm.225 3.883v-.01h2.491a.65.65 0 01.651.65.653.653 0 01-.65.659H4.732a.65.65 0 010-1.3zm0 5.066h6.534a.65.65 0 000-1.3H4.733a.651.651 0 000 1.3zm0 3.809h6.534a.652.652 0 00.583-.65.654.654 0 00-.583-.659H4.733a.662.662 0 00-.625 1.008.647.647 0 00.625.3z" fill="#fff"/></svg>
